svg/building/building_6_fill.svg

<?xml version="1.0" encoding="UTF-8"?>
<svg width="24px" height="24px" viewBox="0 0 24 24" version="1.1" xmlns="http://www.w3.org/2000/svg" xmlns:xlink="http://www.w3.org/1999/xlink">
    <title>building_6_fill</title>
    <g id="Icon" stroke="none" stroke-width="1" fill="none" fill-rule="evenodd">
        <g id="Building" transform="translate(-576.000000, -144.000000)">
            <g id="building_6_fill" transform="translate(576.000000, 144.000000)">
                <path d="M24,0 L24,24 L0,24 L0,0 L24,0 Z M12.5935,23.2578 L12.5819,23.2595 L12.5109,23.295 L12.4919,23.2987 L12.4767,23.295 L12.4057,23.2595 C12.3958,23.2564 12.387,23.259 12.3821,23.2649 L12.378,23.2758 L12.3609,23.7031 L12.3659,23.7235 L12.3769,23.7357 L12.4805,23.8097 L12.4953,23.8136 L12.5071,23.8097 L12.6107,23.7357 L12.6233,23.7197 L12.6267,23.7031 L12.6096,23.2758 C12.6076,23.2657 12.601,23.2593 12.5935,23.2578 Z M12.8584,23.1453 L12.8445,23.1473 L12.6598,23.2397 L12.6499,23.2499 L12.6472,23.2611 L12.6651,23.6906 L12.6699,23.7034 L12.6784,23.7105 L12.8793,23.8032 C12.8914,23.8069 12.9022,23.803 12.9078,23.7952 L12.9118,23.7812 L12.8777,23.1665 C12.8753,23.1546 12.8674,23.147 12.8584,23.1453 Z M12.143,23.1473 C12.1332,23.1424 12.1222,23.1453 12.1156,23.1526 L12.1099,23.1665 L12.0758,23.7812 C12.0751,23.7927 12.0828,23.8019 12.0926,23.8046 L12.1083,23.8032 L12.3092,23.7105 L12.3186,23.7024 L12.3225,23.6906 L12.3404,23.2611 L12.3372,23.2485 L12.3278,23.2397 L12.143,23.1473 Z" id="MingCute" fill-rule="nonzero"></path>
                <path d="M17,3.72157 L17,9.2193 L19.8638,9.93525 C20.5316,10.1022 21,10.7022 21,11.3905 L21,19.0001 C21.5523,19.0001 22,19.4478 22,20.0001 C22,20.5524 21.5523,21.0001 21,21.0001 L3,21.0001 C2.44772,21.0001 2,20.5524 2,20.0001 C2,19.4478 2.44772,19.0001 3,19.0001 L3,11.3091 C3,10.7409 3.321,10.2215 3.82918,9.96745 L7,8.38204 L7,6.34657 C7,5.7213 7.38786,5.16162 7.97331,4.94208 L14.9733,2.31708 C15.9539,1.94934 17,2.67426 17,3.72157 Z M17,11.2808 L17,19.0001 L19,19.0001 L19,11.7808 L17,11.2808 Z M7,10.6181 L5,11.6181 L5,19.0001 L7,19.0001 L7,10.6181 Z" id="形状" fill="#09244B"></path>
            </g>
        </g>
    </g>
</svg>

<svg xmlns="http://www.w3.org/2000/svg" width="24" height="24"><g fill="none" fill-rule="evenodd"><path d="M24 0v24H0V0h24ZM12.594 23.258l-.012.002-.071.035-.02.004-.014-.004-.071-.036c-.01-.003-.019 0-.024.006l-.004.01-.017.428.005.02.01.013.104.074.015.004.012-.004.104-.074.012-.016.004-.017-.017-.427c-.002-.01-.009-.017-.016-.018Zm.264-.113-.014.002-.184.093-.01.01-.003.011.018.43.005.012.008.008.201.092c.012.004.023 0 .029-.008l.004-.014-.034-.614c-.003-.012-.01-.02-.02-.022Zm-.715.002a.023.023 0 0 0-.027.006l-.006.014-.034.614c0 .012.007.02.017.024l.015-.002.201-.093.01-.008.003-.011.018-.43-.003-.012-.01-.01-.184-.092Z"/><path fill="#09244B" d="M17 3.722v5.497l2.864.716A1.5 1.5 0 0 1 21 11.39V19a1 1 0 1 1 0 2H3a1 1 0 1 1 0-2v-7.69a1.5 1.5 0 0 1 .83-1.343L7 8.382V6.347a1.5 1.5 0 0 1 .973-1.405l7-2.625A1.5 1.5 0 0 1 17 3.722Zm0 7.559V19h2v-7.22l-2-.5Zm-10-.663-2 1V19h2v-8.382Z"/></g></svg>
